!!!COM: Music21
!!!OTL: hornpipe_Bunch-Of-Rushes--The
!!!OMV: hornpipe_Bunch-Of-Rushes--The
**kern
*clefG2
*k[f#]
*G:
*M4/4
=1
8ddL
8eeJ
=
4ff#
8eeL
8ff#J
8ggL
8ff#J
8eeL
8ff#J
=
4dd
8ddL
8ccJ
8aL
8gJ
8f#L
8aJ
=
8ccL
8bJ
8ccL
8ddJ
8eeL
8ccJ
8ddL
8bJ
=
4a
8aL
8bJ
4a
8ddL
8eeJ
=
4ff#
8eeL
8ff#J
8ggL
8ff#J
8eeL
8ff#J
!!linebreak:original
=
4dd
8ddL
8ccJ
8aL
8gJ
8f#L
8aJ
=
8ccL
8bJ
8ccL
8ddJ
8ddL
8ccJ
8aL
8gJ
=
4e
4d
4d
8gL
8aJ
=
4b
8aL
8bJ
4cc
8bL
8ccJ
=
4a
8aL
8gJ
8f#L
8gJ
8aL
8bJ
=
8ccL
8bJ
8ccL
8ddJ
8eeL
8ccJ
8ddL
8bJ
!!linebreak:original
=
4a
8aL
8bJ
4a
8ddL
8eeJ
=
4ff#
8eeL
8ff#J
8ggL
8ff#J
8eeL
8ff#J
=
4dd
8ddL
8ccJ
8aL
8gJ
8f#L
8aJ
=
8ccL
8bJ
8ccL
8ddJ
8ddL
8ccJ
8aL
8gJ
=
4e
4d
4d
4r
=
*-
